X:742
T:The Trip to Durrow
M:C|
L:1/8
K:D
"D"D2 FD ADFA|defd "G"B3 c|dBBA dBBA|"D"FADE "A"FE E2|
"D"D2 FD ADFA|defd "G"B2 Bc|"D"dBBA FAdB|"A"AFGE "D"FD D2:|
|:"D"dcde fefg|afdf "G"gfed|"A"cdef g/f/e be|g/f/e be gfec|
"D"dcde fefg|afdf "G"gfed|"A"cdef gbag|fdec "D"d2 de|
fdec d2 de|fded "G"B2 Bc|dBBA dBBA|"D"FADE "A"FEEE|
"D"D2 FD ADFA|defd "G"B2 Bc|dBBA "D"FAdB|"A"AFGE "D"FD D2:|
